resources/svg/minor-behavior.svg

<svg xmlns="http://www.w3.org/2000/svg" viewBox="0 0 20 20" fill="currentColor"><path fill="#5C5F62" d="M10.2747 9.03847C9.92555 8.9387 9.54972 9.03609 9.29292 9.29289C9.03612 9.54969 8.93873 9.92552 9.0385 10.2747L10.7528 16.2747C10.869 16.6816 11.2288 16.9712 11.6511 16.998C12.0733 17.0248 12.4668 16.7828 12.6335 16.3939L13.7616 13.7616L16.3939 12.6334C16.7829 12.4667 17.0248 12.0733 16.998 11.651C16.9713 11.2287 16.6816 10.869 16.2747 10.7528L10.2747 9.03847Z M10 3C10.5523 3 11 3.44772 11 4V6C11 6.55228 10.5523 7 10 7C9.44772 7 9 6.55228 9 6V4C9 3.44772 9.44772 3 10 3Z M5.05025 5.05025C5.44078 4.65973 6.07394 4.65973 6.46447 5.05025L7.87868 6.46447C8.2692 6.85499 8.2692 7.48816 7.87868 7.87868C7.48815 8.2692 6.85499 8.2692 6.46447 7.87868L5.05025 6.46447C4.65973 6.07394 4.65973 5.44078 5.05025 5.05025Z M14.9497 5.05025C15.3403 5.44078 15.3403 6.07394 14.9497 6.46447L13.5355 7.87868C13.145 8.2692 12.5118 8.2692 12.1213 7.87868C11.7308 7.48816 11.7308 6.85499 12.1213 6.46447L13.5355 5.05025C13.9261 4.65973 14.5592 4.65973 14.9497 5.05025Z M7.87868 12.1213C8.2692 12.5118 8.2692 13.145 7.87868 13.5355L6.46447 14.9497C6.07394 15.3403 5.44078 15.3403 5.05025 14.9497C4.65973 14.5592 4.65973 13.9261 5.05025 13.5355L6.46447 12.1213C6.85499 11.7308 7.48815 11.7308 7.87868 12.1213Z M7 10C7 10.5523 6.55228 11 6 11H4C3.44772 11 3 10.5523 3 10C3 9.44772 3.44772 9 4 9H6C6.55228 9 7 9.44772 7 10Z"/></svg>

<svg xmlns="http://www.w3.org/2000/svg" viewBox="0 0 20 20" fill="currentColor"><path d="M10.275 9.038a1 1 0 0 0-1.236 1.237l1.714 6a1 1 0 0 0 1.88.119l1.129-2.632 2.632-1.129a1 1 0 0 0-.12-1.88l-6-1.715Zm-.275-6.038a1 1 0 0 1 1 1v2a1 1 0 1 1-2 0v-2a1 1 0 0 1 1-1Zm-4.95 2.05a1 1 0 0 1 1.414 0l1.415 1.414a1 1 0 0 1-1.415 1.415l-1.414-1.415a1 1 0 0 1 0-1.414Zm9.9 0a1 1 0 0 1 0 1.414l-1.414 1.415a1 1 0 1 1-1.415-1.415l1.415-1.414a1 1 0 0 1 1.414 0Zm-7.071 7.071a1 1 0 0 1 0 1.415l-1.415 1.414a1 1 0 1 1-1.414-1.414l1.414-1.415a1 1 0 0 1 1.415 0Zm-.879-2.121a1 1 0 0 1-1 1h-2a1 1 0 1 1 0-2h2a1 1 0 0 1 1 1Z"/></svg>
